X:1
T:Brudmarsch frn Ns finnmark
R:Marsch
S:Herman Strmberg
S:Kalle Almlf
S:Fafner
Z:Transkription gjord av Linus efter Fafners http://www.youtube.com/watchv=9ndMT2Wm1j8|youtubevideo, 29 okt -08
O:Ns finnmark, Dalarna
H:Utlrd av Kalle Almlf till Fafner. Fafner menar i videokommentaren att Kalle lrde den av Herman Strmberg (1882-1967) som troligen lrde av Lejsme-Per (1827-1907).
M:2/4
L:1/8
K:Am
a2a^g | a^cde | f2fg | f2ed | egag | fed^c | d4- | d2f2 |
feed | dcc=B | c2cd | e2dc | c2cd | BABc | A4
